packages/ui/src/assets/bufficorn.svg

<svg width="71" height="53" viewBox="0 0 71 53" fill="none" xmlns="http://www.w3.org/2000/svg">
<path d="M24.6317 0.0336227C20.9508 0.400677 17.4082 2.10136 12.0859 6.04719C10.9529 6.89141 9.30588 8.04763 9.24508 8.04763C9.21192 8.04763 9.09586 7.96811 8.99085 7.87635C8.47686 7.41753 7.50967 6.91589 6.6917 6.68954C6.04507 6.51213 4.89549 6.49377 4.34834 6.65895C3.93383 6.78742 3.91725 6.79965 3.87303 7.04435C3.8454 7.20953 3.85645 7.22788 4.05542 7.30741C4.66889 7.54599 5.74662 8.02928 6.06165 8.21281C6.47063 8.4514 7.0012 8.87963 7.0012 8.96527C7.0012 9.00198 6.92383 9.02645 6.8354 9.02645C6.74144 9.02645 6.47063 9.06927 6.2385 9.11821C4.97287 9.40574 4.02778 9.96243 3.2485 10.9045L2.8561 11.3756L2.65714 11.2594C2.36974 11.0881 2.04366 10.666 1.96629 10.3601C1.8447 9.86456 1.99392 8.68386 2.27579 7.91917C2.29789 7.84576 2.27026 7.80905 2.17631 7.77847C2.09893 7.76011 1.99945 7.72952 1.95523 7.71117C1.8447 7.66223 1.3086 8.21893 1.00462 8.68998C-0.14495 10.4702 0.0484878 12.4768 1.54072 14.2631L1.76732 14.5384L1.75627 15.56C1.74522 16.6795 1.80601 17.2118 2.05472 18.0804C2.34211 19.0715 2.80083 19.8668 3.32588 20.2644L3.63538 20.4969L3.59117 21.1086C3.56906 21.4451 3.55248 22.0263 3.55248 22.4056C3.57459 24.3081 4.24886 25.8865 5.71346 27.4709L6.17771 27.9787L6.18876 28.4314C6.19982 28.8045 6.23298 28.9575 6.38773 29.3062C6.62538 29.8323 6.95146 30.2299 7.21675 30.3156C7.54283 30.4196 8.85268 30.4563 9.65959 30.389C10.8368 30.285 11.5276 30.0954 12.1577 29.7161L12.4285 29.557L12.528 29.7038C12.5888 29.7895 12.7546 30.1198 12.9093 30.4379C13.5891 31.8817 13.9594 33.6619 14.0534 35.9682C14.0921 36.9287 14.0921 36.9287 14.2468 37.051L14.4016 37.1673L14.4845 37.0388C14.8769 36.4148 15.8441 35.6012 15.8441 35.8948C15.8441 35.9437 15.9159 36.0416 16.0099 36.115L16.1702 36.2496L16.5294 35.7419C16.7228 35.4666 16.9826 35.1362 17.1042 35.0016L17.3253 34.7692L17.4855 34.9282C17.5684 35.0139 17.6569 35.0873 17.679 35.0873C17.7121 35.0873 18.3919 34.1697 18.7014 33.7108C18.7788 33.5885 18.7843 33.5885 18.8451 33.7047C19.4752 34.8304 20.0666 35.6134 20.7132 36.164C20.9951 36.4026 21.0282 36.4576 21.1222 36.843C21.4759 38.3235 22.0617 39.8529 22.6034 40.746C22.8963 41.2232 23.3274 41.6881 23.7474 41.9757C23.9298 42.098 24.079 42.2143 24.079 42.2265C24.079 42.2387 24.1785 42.6241 24.2946 43.0891C24.5488 44.0556 24.7588 45.1507 24.8528 45.9582C24.9965 47.2001 24.6759 47.8057 23.0676 49.3596C21.6693 50.7116 20.984 51.5925 20.984 52.0452V52.2777L22.3823 52.2899L23.775 52.3082L23.7585 52.504L23.7363 52.7059H26.4997H29.2631L29.2963 52.4122C29.3129 52.2532 29.3405 51.8739 29.3571 51.5741C29.4013 50.9318 29.5174 50.265 29.6334 50.0203C29.7274 49.8184 29.8821 49.7695 30.4404 49.7695C30.7499 49.7695 30.8217 49.7511 30.8438 49.6593C30.8604 49.6043 30.9101 48.5765 30.9599 47.3836C31.0704 44.5756 31.1423 43.3521 31.2417 42.5201C31.3136 41.9328 31.3412 41.8288 31.4794 41.6637C31.8221 41.266 32.01 40.5564 32.0929 39.3696C32.1205 38.9169 32.1481 38.5254 32.1481 38.5009C32.1481 38.4764 32.2642 38.3847 32.4134 38.3051C32.8556 38.0604 33.353 37.6138 33.6238 37.2223C33.867 36.8736 33.8891 36.8614 33.9333 36.996C33.9554 37.0694 33.9665 37.1917 33.9499 37.259C33.9333 37.3324 33.972 37.4487 34.0494 37.5527L34.1709 37.724L34.497 37.4058C34.9226 36.996 35.2818 36.5188 35.5195 36.0477L35.7184 35.6685L36.2932 35.6562C38.5592 35.6073 41.0408 35.2647 42.8038 34.7692C43.0525 34.6958 43.2681 34.6529 43.2846 34.6652C43.2957 34.6835 43.3233 35.0139 43.3454 35.4115C43.3675 35.8092 43.4007 36.1456 43.4283 36.1579C43.5002 36.2129 44.7382 36.0049 45.3351 35.852C46.4128 35.5583 47.4518 35.0934 48.4964 34.4144L48.7893 34.2247L48.9828 34.7019C49.4857 35.9193 49.7952 37.0021 49.9721 38.1767C50.0771 38.8863 50.0771 40.4096 49.9776 41.0519C49.7068 42.7098 49.0657 44.178 47.8774 45.8542C47.0539 47.0165 46.6173 47.4081 44.9869 48.4603C44.5392 48.7539 43.97 49.1455 43.7268 49.3351C42.6546 50.1671 41.7095 51.4396 41.7095 52.0635V52.2777H44.5834C47.3247 52.2777 47.4574 52.2715 47.4574 52.1675C47.4574 51.9534 47.8332 50.7727 48.0101 50.4424C48.2311 50.0264 48.3638 49.8612 48.5627 49.7695C48.6898 49.7083 48.7783 49.7266 49.1486 49.8857C49.3918 49.9897 49.6626 50.0876 49.7565 50.112C49.9223 50.1487 49.9278 50.1365 49.9997 49.849C50.1213 49.3657 50.5413 48.2462 50.8121 47.6895C51.6522 45.9582 52.8681 44.4655 54.2774 43.4072C54.7693 43.0462 54.9351 42.8321 55.0567 42.4223C55.1949 41.9634 55.1396 41.1437 54.9186 40.4035C54.7141 39.6999 54.6698 39.3512 54.6698 38.2684C54.6698 37.0204 54.7472 36.4821 55.0899 35.3014L55.1949 34.9282L55.6647 35.0995C55.9189 35.1913 56.2837 35.3014 56.4771 35.3442C56.7645 35.4054 56.9137 35.491 57.3503 35.8459C57.9583 36.3414 58.8315 37.259 59.2847 37.8769C60.5559 39.6265 61.3075 41.682 61.501 43.9761C61.6226 45.3465 61.407 47.09 61.0201 47.9342C60.6941 48.6438 60.5061 48.8763 59.7821 49.4697C59.3289 49.8429 58.7542 50.4057 58.1075 51.1214C57.179 52.137 57.1237 52.2165 57.1403 52.4061L57.1569 52.6141L59.9535 52.6325L62.7556 52.6447L62.8108 52.3572C62.844 52.192 62.8827 51.7454 62.8993 51.36C62.9324 50.6381 63.0429 50.0325 63.1866 49.7817C63.3082 49.5737 63.5017 49.5125 64.1759 49.4697L64.7839 49.433L64.8115 45.9399C64.8336 42.8199 64.8502 42.4284 64.9276 42.3305C65.331 41.8227 65.5355 40.5013 65.4471 38.9597C65.4139 38.3847 65.3918 38.2562 65.3145 38.2317C64.8115 38.0604 64.082 37.5221 63.6509 37.0021C62.9822 36.2007 62.5566 35.2463 62.2747 33.9678C61.9929 32.677 61.9652 32.3221 61.9707 30.4379C61.9763 28.3641 62.0205 27.9114 62.2968 27.1039C62.9103 25.2931 63.1645 23.1397 63.0153 21.0291L62.9766 20.4724L63.2806 20.5642C63.872 20.7355 64.0986 20.8823 64.5352 21.3778C65.2426 22.1853 65.6019 22.9867 65.6903 23.9655C65.8008 25.1829 65.5963 26.3636 64.8115 29.0003C64.2588 30.8662 64.0267 31.7654 63.9549 32.2916C63.8885 32.836 63.9162 33.6313 64.0267 34.0779C64.4965 36.0172 65.7566 37.5833 67.0499 37.8463C67.8236 38.0054 68.7853 37.7668 69.4706 37.2529C70.1615 36.7268 70.6368 35.9315 70.8689 34.9038C70.9518 34.5367 71.0347 33.3193 70.985 33.1786C70.9684 33.1174 70.8965 33.0991 70.7639 33.1174C70.5815 33.1419 70.5649 33.1603 70.5318 33.3988C70.471 33.8454 70.3328 34.2369 70.1504 34.4572C70.0012 34.6529 69.4098 35.0261 69.2606 35.0261C69.2274 35.0261 69.2109 34.7753 69.2219 34.3654C69.2385 33.7047 69.2385 33.7047 69.0948 33.6313C68.8848 33.5273 68.8792 33.5273 68.6858 33.8577C68.3763 34.3899 67.9507 34.6774 67.3152 34.7753C67.1549 34.7998 67.0222 34.7998 67.0222 34.7692C67.0222 34.7447 67.0443 34.7202 67.0665 34.7202C67.1715 34.7202 67.3981 34.1329 67.4146 33.8332C67.4423 33.2581 67.4478 33.2704 67.0941 33.2275C66.6298 33.1664 66.2982 33.0318 66.0937 32.8177C65.7953 32.5118 65.729 32.2732 65.729 31.4779C65.7234 30.6337 65.7953 30.3523 66.2209 29.5509C67.4865 27.1589 67.8513 25.0789 67.4036 22.7665C66.9946 20.607 65.6571 18.1294 64.0267 16.4838C62.5621 15.0033 60.8267 13.6941 59.0913 12.7582C56.7203 11.4796 54.598 10.874 51.6909 10.6476C51.1106 10.5987 51.5306 10.7271 43.6881 8.23116L41.6045 7.56435L40.9247 6.96483C36.3596 2.90276 32.4189 0.767727 28.2794 0.119267C27.5885 0.0152664 25.3723 -0.0397911 24.6317 0.0336227Z" fill="#FFE8FF"/>
</svg>

<svg width="71" height="53" fill="none" xmlns="http://www.w3.org/2000/svg"><path d="M24.632.034C20.95.4 17.408 2.1 12.086 6.047c-1.133.844-2.78 2-2.84 2-.034 0-.15-.079-.255-.17-.514-.46-1.481-.961-2.3-1.187-.646-.178-1.796-.196-2.343-.031-.414.128-.43.14-.475.385-.028.166-.017.184.182.263.614.239 1.692.722 2.007.906.409.238.94.667.94.752 0 .037-.078.061-.167.061-.094 0-.364.043-.596.092-1.266.288-2.211.844-2.99 1.787l-.393.47-.199-.116c-.287-.17-.613-.593-.69-.899-.122-.495.027-1.676.309-2.44.022-.074-.006-.11-.1-.142a1.828 1.828 0 0 1-.22-.067c-.111-.049-.647.508-.951.979-1.15 1.78-.957 3.787.536 5.573l.226.275-.01 1.022c-.012 1.12.049 1.652.298 2.52.287.992.746 1.787 1.27 2.184l.31.233-.044.612c-.022.336-.039.917-.039 1.297.023 1.902.697 3.48 2.161 5.065l.465.508.01.452c.012.373.045.526.2.875.237.526.563.924.829 1.01.326.104 1.636.14 2.443.073 1.177-.104 1.868-.294 2.498-.673l.27-.159.1.147c.06.085.227.416.381.734.68 1.444 1.05 3.224 1.144 5.53.04.96.04.96.194 1.083l.155.116.083-.128c.392-.624 1.36-1.438 1.36-1.144 0 .049.07.147.165.22l.16.135.36-.508c.193-.275.453-.606.574-.74l.221-.233.16.16c.083.085.172.158.194.158.033 0 .713-.917 1.022-1.376.078-.122.083-.122.144-.006.63 1.125 1.222 1.908 1.868 2.459.282.239.315.294.41.679.353 1.48.939 3.01 1.48 3.903.293.477.724.942 1.144 1.23.183.122.332.238.332.25 0 .013.1.398.216.863.254.967.464 2.062.558 2.87.143 1.241-.177 1.847-1.785 3.4-1.399 1.353-2.084 2.233-2.084 2.686v.233l1.398.012 1.393.018-.016.196-.023.202H29.263l.033-.294c.017-.159.044-.538.061-.838.044-.642.16-1.309.276-1.554.094-.202.25-.25.807-.25.31 0 .382-.019.404-.11.016-.056.066-1.083.116-2.276.11-2.808.182-4.032.282-4.864.072-.587.1-.691.237-.856.343-.398.531-1.108.614-2.294.027-.453.055-.845.055-.87 0-.024.116-.115.265-.195.443-.245.94-.691 1.21-1.083.244-.348.266-.36.31-.226a.612.612 0 0 1 .017.263c-.017.073.022.19.1.294l.12.171.327-.318c.426-.41.785-.887 1.023-1.358l.198-.38.575-.012c2.266-.049 4.748-.391 6.51-.887.25-.073.465-.116.482-.104.01.019.038.349.06.746.023.398.056.735.083.747.072.055 1.31-.153 1.907-.306a11.09 11.09 0 0 0 3.161-1.438l.293-.19.194.478c.503 1.217.812 2.3.99 3.475.104.71.104 2.233.005 2.875-.271 1.658-.912 3.126-2.1 4.802-.824 1.163-1.26 1.554-2.891 2.606-.448.294-1.017.685-1.26.875-1.072.832-2.017 2.105-2.017 2.728v.215h2.873c2.742 0 2.874-.006 2.874-.11 0-.215.376-1.395.553-1.726.221-.416.354-.58.553-.672.127-.062.215-.043.586.116a6 6 0 0 0 .608.226c.165.037.17.024.243-.263.121-.483.541-1.603.812-2.16.84-1.73 2.056-3.224 3.465-4.282.492-.36.658-.575.78-.985.138-.459.083-1.278-.138-2.018-.205-.704-.25-1.053-.25-2.136 0-1.248.078-1.786.42-2.967l.106-.373.47.172c.254.091.619.201.812.244.288.061.437.147.873.502.608.495 1.481 1.413 1.935 2.03 1.27 1.75 2.023 3.806 2.216 6.1.122 1.37-.094 3.114-.48 3.958-.327.71-.515.942-1.239 1.536-.453.373-1.028.936-1.674 1.651-.929 1.016-.984 1.096-.968 1.285l.017.208 2.797.019 2.802.012.055-.288a9.04 9.04 0 0 0 .088-.997c.033-.722.144-1.328.288-1.578.121-.208.315-.27.989-.312l.608-.037.027-3.493c.023-3.12.04-3.512.117-3.61.403-.507.608-1.829.52-3.37-.034-.575-.056-.704-.133-.728-.504-.172-1.233-.71-1.664-1.23-.669-.801-1.094-1.756-1.376-3.034-.282-1.291-.31-1.646-.304-3.53.005-2.074.05-2.527.326-3.334.613-1.81.867-3.964.718-6.075l-.038-.557.304.092c.591.171.818.318 1.254.814.708.807 1.067 1.609 1.155 2.587.11 1.218-.094 2.399-.879 5.035-.552 1.866-.784 2.765-.856 3.292-.066.544-.039 1.34.072 1.786.47 1.94 1.73 3.505 3.023 3.768.774.16 1.735-.08 2.42-.593.692-.526 1.167-1.322 1.399-2.35.083-.366.166-1.584.116-1.724-.017-.062-.088-.08-.221-.062-.182.025-.2.043-.232.282-.061.446-.2.838-.382 1.058-.149.196-.74.57-.89.57-.033 0-.05-.252-.038-.662.017-.66.017-.66-.127-.734-.21-.104-.216-.104-.41.227-.309.532-.734.82-1.37.917-.16.025-.293.025-.293-.006 0-.024.022-.049.044-.049.105 0 .332-.587.349-.887.027-.575.033-.563-.32-.605-.465-.062-.797-.196-1.001-.41-.299-.306-.365-.545-.365-1.34-.006-.844.066-1.126.492-1.927 1.266-2.392 1.63-4.472 1.183-6.784-.41-2.16-1.747-4.638-3.377-6.283-1.465-1.48-3.2-2.79-4.936-3.726-2.37-1.278-4.493-1.884-7.4-2.11-.58-.05-.16.08-8.003-2.417l-2.084-.667-.68-.6C36.36 2.904 32.42.769 28.28.12c-.69-.104-2.907-.159-3.647-.085Z" fill="#FFE8FF"/></svg>
